64/places/folder.svg

<?xml version="1.0" encoding="UTF-8"?>
<svg id="svg4" version="1.1" viewBox="0 0 64 64" xmlns="http://www.w3.org/2000/svg">
 <defs id="defs3051">
  <style id="current-color-scheme" type="text/css">.ColorScheme-Text {
        color:#232629;
      }
      .ColorScheme-Accent {
        color:#3daee9;
      }</style>
 </defs>
 <path id="path1" class="ColorScheme-Accent" d="m4 6v14h-1v32l10.97 6h47.03v-38l-1-0.60944v-3.3906l-10.5-6-17.521 0.01-3.9579-4.02z" fill="#f60"/>
 <path id="path2" d="m4 6v14h18l4-4h28l6 3.3906v-3.3906l-10.5-6h-17.5l-4-4z" fill-opacity=".33"/>
 <path id="path6" d="m60 21v36h1v-37l-7-4zm-32-15 3 5h18l11 5-10.5-6h-17.5zm-2 10-4 4h-19v1h20z" fill="#fff" fill-opacity=".2"/>
 <path id="path4" class="ColorScheme-Text" d="m26 16-6 3h-16v1h18zm-23 34v2l11 6h47v-1h-47 2l-2-1z" fill-opacity=".2" fill-rule="evenodd"/>
</svg>

<?xml version="1.0" encoding="UTF-8" standalone="no"?>
<svg
   viewBox="0 0 64 64"
   version="1.1"
   id="svg4"
   sodipodi:docname="folder.svg"
   inkscape:version="1.4.3 (0d15f75042, 2025-12-25)"
   inkscape:export-filename="../../testdir/folder.png"
   inkscape:export-xdpi="96"
   inkscape:export-ydpi="96"
   xmlns:inkscape="http://www.inkscape.org/namespaces/inkscape"
   xmlns:sodipodi="http://sodipodi.sourceforge.net/DTD/sodipodi-0.dtd"
   xmlns="http://www.w3.org/2000/svg"
   xmlns:svg="http://www.w3.org/2000/svg">
  <sodipodi:namedview
     id="namedview4"
     pagecolor="#ffffff"
     bordercolor="#000000"
     borderopacity="0.25"
     inkscape:showpageshadow="2"
     inkscape:pageopacity="0.0"
     inkscape:pagecheckerboard="true"
     inkscape:deskcolor="#d1d1d1"
     showgrid="true"
     inkscape:zoom="7.229941"
     inkscape:cx="33.817703"
     inkscape:cy="31.397213"
     inkscape:window-width="1918"
     inkscape:window-height="1042"
     inkscape:window-x="0"
     inkscape:window-y="0"
     inkscape:window-maximized="1"
     inkscape:current-layer="svg4"
     showguides="true">
    <inkscape:grid
       id="grid2"
       units="px"
       originx="0"
       originy="0"
       spacingx="1"
       spacingy="1"
       empcolor="#0099e5"
       empopacity="0.30196078"
       color="#0099e5"
       opacity="0.14902"
       empspacing="5"
       enabled="true"
       visible="true"
       dotted="false" />
  </sodipodi:namedview>
  <defs
     id="defs3051">
    <style
       type="text/css"
       id="current-color-scheme">
      .ColorScheme-Text {
        color:#232629;
      }
      .ColorScheme-Accent {
        color:#3daee9;
      }
      </style>
  </defs>
  <path
     style="fill:#ff6600;fill-opacity:1"
     d="M 4,6 V 20 H 3 v 1 0 0 31 l 10.970417,6 H 60 61 V 57 20 L 60,19.390555 V 16 16 L 49.5,10 31.978969,10.01 28.021031,5.990014 Z"
     class="ColorScheme-Accent"
     id="path1"
     sodipodi:nodetypes="ccccccccccccccccccc" />
  <path
     style="fill-opacity:0.33"
     d="m 4,6 v 14 h 18 l 4,-4 h 28 l 6,3.390555 V 16 16 L 49.5,10 H 32 L 28,6 Z"
     id="path2"
     sodipodi:nodetypes="cccccccccccc" />
  <path
     id="path6"
     style="fill:#ffffff;fill-opacity:0.2"
     d="m 60,21 v 36 h 1 V 20 L 54,16 Z M 28,6 l 3,5 h 2 16 L 60,16 49.5,10 H 33 32 Z m -2,10 -4,4 H 3 v 1 h 20 z"
     inkscape:label="path3" />
  <path
     style="fill-opacity:0.2;fill-rule:evenodd"
     d="m 26,16 -6,3 H 4 v 1 H 22 Z M 3,50 v 2 l 11,6 h 46 1 v -1 h -1 -46 2 l -2,-1 z"
     class="ColorScheme-Text"
     id="path4"
     sodipodi:nodetypes="ccccccccccccccccc" />
</svg>
